icons/hospital-fill.svg

<svg xmlns="http://www.w3.org/2000/svg" viewBox="0 0 24 24">
    <g>
        <path fill="none" d="M0 0h24v24H0z"/>
        <path d="M21 20h2v2H1v-2h2V3a1 1 0 0 1 1-1h16a1 1 0 0 1 1 1v17zM11 8H9v2h2v2h2v-2h2V8h-2V6h-2v2zm3 12h2v-6H8v6h2v-4h4v4z"/>
    </g>
</svg>

<svg viewBox="0 0 24 24" fill="currentColor" xmlns="http://www.w3.org/2000/svg">
    <path d="M21 20H23V22H1V20H3V3C3 2.44772 3.44772 2 4 2H20C20.5523 2 21 2.44772 21 3V20ZM11 8H9V10H11V12H13V10H15V8H13V6H11V8ZM14 20H16V14H8V20H10V16H14V20Z"/>
</svg>
